X: 17256
T: Herbert The Sherbert
R: jig
M: 6/8
K: Eminor
|:E2E e2e|cBA B2A|GBA GFE|FAd AFD|
E2 E e2e|cBA B2g|gfe dcB|1 AFD E2D:|2 AFD E2F||
|:G2G BAG|A2A cBA|G2G BAG|FAd AFA|
G2G BAG|AB/^c/d e3|B^cd AB/^c/d|1 AFD E2F:|2 AFD E2D||

